src/shared/icons/vol.svg

<!-- Generated by IcoMoon.io -->
<svg version="1.1" xmlns="http://www.w3.org/2000/svg" width="50" height="50" viewBox="0 0 32 32">
<title></title>
<path d="M30.784 0.96c-0.32-0.64-0.896-0.96-1.6-0.96h-27.52c-0.448 0-0.832 0.32-0.832 0.768v26.496c0 2.624 2.112 4.736 4.736 4.736h17.024c2.624 0 4.736-2.112 4.736-4.736v-18.304c0-1.024 0.32-1.984 0.896-2.816l2.368-3.2c0.448-0.64 0.448-1.344 0.192-1.984zM29.376 1.984l-2.368 3.2c-0.768 1.088-1.216 2.368-1.216 3.776v18.304c0 1.792-1.408 3.2-3.2 3.2h-16.96c-1.792 0-3.2-1.408-3.2-3.2v-25.728h26.752c0.128 0 0.192 0.064 0.256 0.128s0 0.192-0.064 0.32zM24.704 14.016c-1.472-1.152-3.52-1.152-4.992 0-0.896 0.704-2.176 0.704-3.072 0-1.472-1.152-3.52-1.152-4.992 0 0 0 0 0 0 0-0.896 0.704-2.176 0.704-3.072 0-1.536-1.216-3.584-1.216-5.056 0-0.192 0.128-0.32 0.384-0.32 0.576v12.352c0 1.408 1.152 2.496 2.496 2.496h16.704c1.408 0 2.496-1.152 2.496-2.496v-12.352c0.064-0.192 0-0.448-0.192-0.576zM23.424 27.008c0 0.512-0.448 0.96-0.96 0.96h-16.704c-0.512 0-0.96-0.448-0.96-0.96v-11.968c0.896-0.512 1.984-0.448 2.752 0.192 1.472 1.152 3.52 1.152 4.992 0 0 0 0 0 0 0 0.896-0.704 2.176-0.704 3.072 0 1.472 1.152 3.52 1.152 4.992 0 0.832-0.64 1.92-0.704 2.752-0.192l0.064 11.968z"></path>
</svg>

<svg xmlns="http://www.w3.org/2000/svg" width="50" height="50" viewBox="0 0 32 32"><path d="M30.784.96c-.32-.64-.896-.96-1.6-.96H1.664C1.216 0 .832.32.832.768v26.496C.832 29.888 2.944 32 5.568 32h17.024c2.624 0 4.736-2.112 4.736-4.736V8.96c0-1.024.32-1.984.896-2.816l2.368-3.2c.448-.64.448-1.344.192-1.984zm-1.408 1.024-2.368 3.2c-.768 1.088-1.216 2.368-1.216 3.776v18.304c0 1.792-1.408 3.2-3.2 3.2H5.632c-1.792 0-3.2-1.408-3.2-3.2V1.536h26.752c.128 0 .192.064.256.128s0 .192-.064.32zm-4.672 12.032c-1.472-1.152-3.52-1.152-4.992 0-.896.704-2.176.704-3.072 0-1.472-1.152-3.52-1.152-4.992 0-.896.704-2.176.704-3.072 0-1.536-1.216-3.584-1.216-5.056 0-.192.128-.32.384-.32.576v12.352c0 1.408 1.152 2.496 2.496 2.496H22.4c1.408 0 2.496-1.152 2.496-2.496V14.592c.064-.192 0-.448-.192-.576zm-1.28 12.992c0 .512-.448.96-.96.96H5.76c-.512 0-.96-.448-.96-.96V15.04c.896-.512 1.984-.448 2.752.192 1.472 1.152 3.52 1.152 4.992 0 .896-.704 2.176-.704 3.072 0 1.472 1.152 3.52 1.152 4.992 0 .832-.64 1.92-.704 2.752-.192l.064 11.968z"/></svg>
